Template/vft/img/logo-white.svg

<svg width="180" height="48" fill="none" xmlns="http://www.w3.org/2000/svg"><path d="M96.155 39.059l-.373.47c.373.471 1.026.753 1.772.753 1.306 0 1.772-.753 1.772-1.411 0-1.036-.932-1.224-1.678-1.506-.56-.189-1.12-.283-1.12-.753 0-.47.467-.753 1.026-.753.467 0 1.026.188 1.4.564l.372-.47c-.466-.47-1.025-.659-1.678-.659-.933 0-1.586.565-1.586 1.318 0 .94.84 1.13 1.586 1.411.653.189 1.212.377 1.212.942 0 .376-.28.847-1.12.847-.745-.094-1.305-.377-1.585-.753zm-27.513 1.129l-1.025-3.953-1.026 3.953h-.653l-1.306-4.8h.653l1.026 4.047 1.026-4.047h.466l1.026 4.047 1.026-4.047h.653l-1.306 4.8h-.56zm4.943 0v-4.8h.56v4.8h-.56zm4.011-4.894v4.8h2.798v-.565h-2.239v-4.235h-.56z" fill="#fff"/><path fill-rule="evenodd" clip-rule="evenodd" d="M83.472 40.188v-4.8h1.585c1.492 0 2.425 1.035 2.425 2.447 0 1.412-.933 2.447-2.425 2.447h-1.585v-.094zm3.45-2.447c0-1.035-.653-1.882-1.772-1.882h-1.026v3.764h1.026c1.026 0 1.772-.846 1.772-1.882z" fill="#fff"/><path d="M102.497 35.294h.56v4.8h-.56v-4.8z" fill="#fff"/><path fill-rule="evenodd" clip-rule="evenodd" d="M106.508 35.294v4.8h2.145c.839 0 1.399-.565 1.399-1.318 0-.564-.373-1.129-.933-1.129.466-.094.84-.47.84-1.13 0-.752-.467-1.223-1.306-1.223h-2.145zm1.958.565c.56 0 .84.282.84.753 0 .47-.28.753-.84.847h-1.399v-1.6h1.399zm.094 2.07c.559 0 .839.377.839.847 0 .565-.28.847-.839.847h-1.493V37.93h1.493z" fill="#fff"/><path d="M113.223 40.094v-4.8h3.077v.565h-2.518v1.6h2.425v.564h-2.425v1.695h2.518v.564h-3.077v-.188z" fill="#fff"/><path fill-rule="evenodd" clip-rule="evenodd" d="M121.057 38.212l1.212 1.976h.653l-1.305-1.976c.652-.094 1.212-.565 1.212-1.412s-.653-1.412-1.492-1.412h-1.866v4.8h.56v-1.976h1.026zm.28-2.353c.559 0 .932.376.932.941s-.373.941-.932.941h-1.213V35.86h1.213z" fill="#fff"/><path d="M126.093 35.294h.56v4.8h-.56v-4.8z" fill="#fff"/><path fill-rule="evenodd" clip-rule="evenodd" d="M132.995 39.059l.466 1.13h.653l-1.865-4.8h-.746l-1.866 4.8h.56l.466-1.13h2.332zm-2.052-.565l1.026-2.541 1.026 2.541h-2.052z" fill="#fff"/><path d="M0 23.53C0 10.54 10.26 0 22.943 0c12.684 0 22.943 10.541 23.036 23.53 0 1.505-.186 3.011-.466 4.517-.187 1.035-.466 1.976-.746 2.918l-6.249-6.118c-.373-.376-1.026-.47-1.492-.094-.466.282-.653.847-.466 1.412.28.847-.747 1.506-1.306.94l-9.14-9.6c-.373-.281-.933-.564-1.399-.376-.746.189-1.306.942-1.212 1.694l.093 3.671c.093 1.224-.933 2.259-2.052 2.165l-7.461-1.883c-.466-.094-1.026.095-1.306.471-.373.565-.186 1.318.373 1.6l7.835 4.988c.466.283.186 1.13-.374.847l-12.124-4.33c-.933-.281-2.052-.093-2.798.566l-2.425 2.164c2.332 8.941 10.26 15.436 19.679 15.436 8.674 0 16.041-5.553 19.026-13.365l1.865 1.976c-3.45 8.283-11.565 13.93-20.891 13.93-10.166 0-18.746-6.777-21.73-16.188a21.063 21.063 0 01-.84-3.483l2.238-1.976 7.928-7.153c.653-.565 1.585-.565 2.332-.094l2.61 1.976a1.714 1.714 0 002.333-.094l6.621-7.718c.746-.847 2.145-.847 2.798.095l6.622 9.317c.653.753 1.772.847 2.425.094l.466-.376c.746-.565 1.772-.565 2.425.094l4.197 4.235c.093-.753.093-1.506.093-2.259 0-11.576-9.14-20.988-20.425-20.988-10.912 0-19.772 8.659-20.518 19.577L0 24.282v-.753zm79.275-10.071c0-.565-.094-1.13-.187-1.506-.093 0-.093 0-.186-.094-.187 0-.374-.094-.56-.094-.28 0-.56-.094-.84-.094-.28 0-.559 0-.839.094-.28 0-.56.094-.746.188-.093.47-.186.941-.186 1.506 0 .565.093 1.13.186 1.506.28.094.466.188.746.188.28 0 .56.094.84.094.28 0 .56 0 .839-.094.28 0 .56-.094.746-.188.093-.47.187-.941.187-1.506zm-.187 16.847V17.6c-.466-.094-.933-.188-1.492-.188-.56 0-1.12.094-1.492.188v12.8c.466.094.932.188 1.492.188.466-.094 1.026-.188 1.492-.282zm-11.751 0c-.28.094-.653.094-1.026.188h-2.238c-.374 0-.653-.094-1.026-.188L57.264 12.14c.28 0 .466-.094.746-.094h1.866c.186 0 .373.094.56.094h.279l4.57 15.059h.187l4.476-15.059c.28 0 .467-.094.746-.094h1.866c.28 0 .56.094.746.188l-5.97 18.07zm19.679-3.765c0 .565.093.941.28 1.13.28.188.559.282 1.025.282h1.12c.372 0 .745 0 .932-.094 0 .188.093.376.093.659v.753c0 .282-.093.47-.186.752-.094.189-.187.377-.373.565-.187.094-.467.094-.84.188h-1.212c-.466 0-1.026 0-1.492-.094a3.255 3.255 0 01-1.306-.564c-.373-.283-.653-.66-.933-1.13-.186-.659-.186-1.412-.186-2.259v-7.623h-1.865c-.094-.377-.187-.753-.187-1.13 0-.376 0-.847.187-1.129h1.865V13.46c.186-.094.466-.188.746-.282.28-.095.56-.095.84-.095h.839c.28 0 .466 0 .653.095v3.764h3.637c.093.377.186.753.186 1.13 0 .376-.093.847-.186 1.129h-3.638v7.341z" fill="#fff"/><path fill-rule="evenodd" clip-rule="evenodd" d="M105.948 27.765c.093.376.187.847.093 1.412-.093.564-.279.94-.466 1.317-.373.094-.746.188-1.119.188s-.839-.094-1.213-.188a2.21 2.21 0 01-1.025-.565c-.28-.282-.56-.658-.653-1.035-.373.565-.933.941-1.586 1.318-.653.376-1.492.564-2.518.564-1.026 0-1.865-.188-2.425-.47-.56-.283-1.026-.659-1.305-1.13a4.461 4.461 0 01-.56-1.411c-.093-.565-.093-.942-.093-1.412 0-.659 0-1.224.186-1.694.094-.47.28-.847.467-1.224.28-.282.56-.564 1.026-.753.466-.188 1.025-.282 1.771-.376.28 0 .747-.094 1.12-.094h1.305c.467 0 .933 0 1.306.094.466 0 .839.094 1.212.282v-1.13c0-.376 0-.752-.093-1.034-.093-.283-.186-.471-.373-.565-.186-.188-.373-.283-.653-.283-.279 0-.56-.094-1.026-.094H96.53c-.84 0-1.586.095-2.239.189-.28-.283-.373-.66-.466-1.13-.093-.47-.093-.941-.093-1.317.373-.095.746-.095 1.305-.189.467 0 .933-.094 1.492-.094h2.798c.747 0 1.493 0 2.145.188.653.095 1.213.283 1.679.66.467.282.84.846 1.026 1.411.28.565.373 1.412.373 2.447v6.494c.093.094.28.188.373.188h.839c.093-.564.186-.564.186-.564zm-7.834.376c.746 0 1.492-.188 1.959-.376.466-.283.932-.565 1.305-.847V24H99.14c-.746 0-1.4.094-1.959.188-.186 0-.373.094-.466.094-.093 0-.28.095-.28.283-.093.094-.186.282-.186.564v1.036c0 .753.186 1.223.466 1.6.093.282.653.47 1.399.376z" fill="#fff"/><path d="M114.155 14.494c-.746 0-1.212.094-1.492.377-.28.282-.373.847-.373 1.694v1.412h3.171c.093.376.187.752.187 1.129 0 .47-.094.847-.187 1.13h-3.171v10.07c-.466.094-1.026.188-1.492.188-.56 0-1.026-.094-1.492-.188v-9.977h-1.772c-.094-.376-.187-.753-.187-1.129 0-.47.093-.847.187-1.13h1.772v-1.6c0-.658.093-1.223.28-1.788a4.984 4.984 0 01.746-1.411c.373-.377.746-.753 1.305-.942.56-.282 1.213-.282 1.959-.282h.746c.28 0 .56 0 .839.094h.094c.279 0 .559.094.839.188.187 0 .373.095.466.095.094 0 .187 0 .28.094.093.376.093.847 0 1.223-.093.377-.186.847-.373 1.13l-1.026-.095c-.559-.282-.932-.282-1.306-.282z" fill="#fff"/><path fill-rule="evenodd" clip-rule="evenodd" d="M123.668 16.47c1.213 0 2.239.189 3.078.471.839.283 1.492.753 2.052 1.318.466.564.839 1.317 1.026 2.165.186.847.28 1.882.28 2.917 0 1.224-.094 2.259-.28 3.2-.187.847-.56 1.694-1.026 2.259-.466.565-1.213 1.035-2.052 1.412-.839.282-1.865.47-3.078.47-1.212 0-2.331-.188-3.077-.47-.84-.283-1.493-.753-2.052-1.412-.466-.565-.84-1.412-1.026-2.259-.187-.847-.28-1.976-.28-3.2 0-1.13.093-2.07.28-2.918.186-.846.56-1.6 1.026-2.164.559-.565 1.212-1.035 2.052-1.318.839-.376 1.865-.47 3.077-.47zm0 2.542c-.652 0-1.212.094-1.678.282-.467.188-.746.377-1.026.753-.28.377-.467.847-.467 1.412-.093.564-.093 1.223-.093 1.976 0 .847 0 1.506.093 2.165.094.565.28 1.13.467 1.412.28.376.559.659 1.026.847.466.188 1.026.282 1.678.282.653 0 1.306-.094 1.679-.282.466-.188.746-.47 1.026-.847s.373-.847.466-1.412c.094-.565.094-1.318.094-2.07 0-.754 0-1.412-.094-1.977-.093-.565-.279-1.035-.466-1.318-.28-.376-.56-.564-1.026-.753-.466-.376-1.026-.47-1.679-.47z" fill="#fff"/><path d="M141.948 16.47c0 .189.093.377.093.66v.847c0 .282-.093.564-.093.846a4.523 4.523 0 01-.28.66h-2.331c-.467 0-.933.093-1.492.093-.187 0-.374.095-.56.095-.373 0-.653.094-1.026.188v10.447c-.186 0-.466.094-.746.094h-1.679c-.28 0-.466-.094-.746-.094V16.847c.093-.094.28-.188.56-.282.279-.094.466-.094.746-.094h.746c.28 0 .466 0 .559.094l.56 1.694c.466-.377 1.026-.753 1.492-.941.56-.283 1.026-.47 1.586-.565a44.366 44.366 0 001.492-.282h1.119z" fill="#fff"/><path fill-rule="evenodd" clip-rule="evenodd" d="M149.596 16.47c1.306 0 2.331.189 3.171.471.839.283 1.492.847 1.958 1.412.467.565.747 1.318.84 2.259.093.847.093 1.882 0 2.917 0 .283-.093.565-.28.66-.187.093-.373.282-.746.376-.28 0-.746.094-1.306.094h-4.29c-.746 0-1.492-.094-2.052-.188 0 .658.093 1.317.187 1.694.093.47.28.847.559 1.13.28.281.56.47 1.026.564a6.65 6.65 0 001.586.188h1.305c.467 0 .933-.094 1.399-.094.467 0 .84-.094 1.12-.094.279 0 .559-.094.652-.094.187.282.28.564.467 1.13.093.47.093.94 0 1.41-.187.095-.467.19-.933.283-.28.094-.466.094-.746.094-.187 0-.373.095-.56.095-.466 0-1.026.094-1.492.094h-1.399c-1.212 0-2.238-.095-2.984-.377-.84-.282-1.492-.659-2.052-1.223-.466-.565-.839-1.318-1.119-2.26-.28-.94-.28-2.07-.28-3.387 0-1.13.093-2.071.28-3.012.186-.847.466-1.6.932-2.165.467-.565 1.026-1.035 1.772-1.318.84-.564 1.772-.658 2.985-.658zm2.891 6.024c0-.847 0-1.412-.093-1.882s-.28-.847-.56-1.035c-.28-.283-.559-.377-.932-.471-.373-.094-.747-.094-1.213-.094-.559 0-1.119 0-1.492.188-.373.094-.653.282-.933.565a3.161 3.161 0 00-.466 1.13c-.093.47-.093 1.034-.187 1.787l5.876-.188z" fill="#fff"/><path d="M163.772 16.47c.56 0 1.119 0 1.679.095.559 0 1.119.094 1.585.188.187 0 .373.094.56.094.28 0 .466.094.746.094.373.094.56.188.746.188v.565c0 .188 0 .377-.093.565v.094c0 .282-.093.47-.187.659l-.28.564s-.186 0-.466-.094-.746-.094-1.119-.188c-.466 0-.933-.094-1.492-.188-.56 0-1.119-.094-1.586-.094-.932 0-1.492.094-1.865.282-.373.188-.466.47-.466.941 0 .283.093.565.279.753.187.189.374.377.747.565.093 0 .093.094.186.094.28.094.56.188.933.282.466.095 1.026.283 1.585.471h.093c.747.188 1.306.47 1.866.659a3.51 3.51 0 011.399.847c.373.282.653.659.839 1.13.187.47.28 1.035.28 1.693 0 1.412-.466 2.353-1.399 3.012-.933.659-2.332.941-4.383.941-.56 0-1.213 0-1.773-.094-.559 0-1.119-.094-1.585-.188-.187 0-.373-.094-.56-.094-.279 0-.559-.094-.746-.094-.373-.094-.653-.189-.839-.283v-1.317c.093-.47.186-.847.373-1.13.187 0 .466.095.839.095.373 0 .653.094 1.026.188h.28c.466.094 1.026.094 1.586.188h.093c.466 0 1.026.094 1.492.094 1.026 0 1.679-.094 2.052-.282.373-.189.559-.565.559-1.036 0-.282-.093-.564-.279-.658-.187-.189-.373-.283-.653-.471-.28-.094-.653-.282-1.119-.377-.467-.094-.933-.282-1.586-.47-.746-.282-1.399-.47-2.052-.753a21.351 21.351 0 01-1.492-.847 3.553 3.553 0 01-.933-1.13c-.186-.47-.279-1.035-.279-1.6 0-1.411.466-2.352 1.305-3.011.84-.66 2.239-.941 4.104-.941zm12.404 10.071c0 .565.093.941.28 1.13.28.188.56.282 1.026.282h1.119c.373 0 .746 0 .933-.094 0 .188.093.376.093.659v.753c0 .282-.093.47-.187.752-.093.189-.186.377-.373.565-.186.094-.466.094-.839.188-.373.095-.746 0-1.212 0-.467 0-1.026 0-1.493-.094a3.252 3.252 0 01-1.305-.564c-.373-.283-.653-.66-.933-1.13-.28-.564-.28-1.223-.28-2.07v-7.624h-1.865c-.093-.376-.187-.753-.187-1.13 0-.376 0-.846.187-1.129h1.865v-3.388c.187-.094.467-.188.746-.282.28-.094.56-.094.84-.094h.839c.28 0 .466 0 .653.094v3.764h3.637c.093.377.187.753.187 1.13a4.1 4.1 0 01-.187 1.13h-3.637v7.152h.093z" fill="#fff"/></svg>

<svg width="180" height="48" viewBox="0 0 180 48" fill="none" xmlns="http://www.w3.org/2000/svg">
<path d="M0 23.53C0 10.54 10.26 0 22.943 0C35.627 0 45.886 10.541 45.979 23.53C45.979 25.035 45.793 26.541 45.513 28.047C45.326 29.082 45.047 30.023 44.767 30.965L38.518 24.847C38.145 24.471 37.492 24.377 37.026 24.753C36.56 25.035 36.373 25.6 36.56 26.165C36.84 27.012 35.813 27.671 35.254 27.105L26.114 17.505C25.741 17.224 25.181 16.941 24.715 17.129C23.969 17.318 23.409 18.071 23.503 18.823L23.596 22.494C23.689 23.718 22.663 24.753 21.544 24.659L14.083 22.776C13.617 22.682 13.057 22.871 12.777 23.247C12.404 23.812 12.591 24.565 13.15 24.847L20.985 29.835C21.451 30.118 21.171 30.965 20.611 30.682L8.487 26.352C7.554 26.071 6.435 26.259 5.689 26.918L3.264 29.082C5.596 38.023 13.524 44.518 22.943 44.518C31.617 44.518 38.984 38.965 41.969 31.153L43.834 33.129C40.384 41.412 32.269 47.059 22.943 47.059C12.777 47.059 4.197 40.282 1.213 30.871C0.834585 29.736 0.553568 28.5708 0.373 27.388L2.611 25.412L10.539 18.259C11.192 17.694 12.124 17.694 12.871 18.165L15.481 20.141C15.8098 20.423 16.2332 20.5701 16.666 20.5527C17.0988 20.5353 17.509 20.3546 17.814 20.047L24.435 12.329C25.181 11.482 26.58 11.482 27.233 12.424L33.855 21.741C34.508 22.494 35.627 22.588 36.28 21.835L36.746 21.459C37.492 20.894 38.518 20.894 39.171 21.553L43.368 25.788C43.461 25.035 43.461 24.282 43.461 23.529C43.461 11.953 34.321 2.541 23.036 2.541C12.124 2.541 3.264 11.2 2.518 22.118L0 24.282V23.529V23.53ZM79.275 13.459C79.275 12.894 79.181 12.329 79.088 11.953C78.995 11.953 78.995 11.953 78.902 11.859C78.715 11.859 78.528 11.765 78.342 11.765C78.062 11.765 77.782 11.671 77.502 11.671C77.222 11.671 76.943 11.671 76.663 11.765C76.383 11.765 76.103 11.859 75.917 11.953C75.824 12.423 75.731 12.894 75.731 13.459C75.731 14.024 75.824 14.589 75.917 14.965C76.197 15.059 76.383 15.153 76.663 15.153C76.943 15.153 77.223 15.247 77.503 15.247C77.783 15.247 78.063 15.247 78.342 15.153C78.622 15.153 78.902 15.059 79.088 14.965C79.181 14.495 79.275 14.024 79.275 13.459V13.459ZM79.088 30.306V17.6C78.622 17.506 78.155 17.412 77.596 17.412C77.036 17.412 76.476 17.506 76.104 17.6V30.4C76.57 30.494 77.036 30.588 77.596 30.588C78.062 30.494 78.622 30.4 79.088 30.306V30.306ZM67.337 30.306C67.057 30.4 66.684 30.4 66.311 30.494H64.073C63.699 30.494 63.42 30.4 63.047 30.306L57.264 12.14C57.544 12.14 57.73 12.046 58.01 12.046H59.876C60.062 12.046 60.249 12.14 60.436 12.14H60.715L65.285 27.199H65.472L69.948 12.14C70.228 12.14 70.415 12.046 70.694 12.046H72.56C72.84 12.046 73.12 12.14 73.306 12.234L67.336 30.304L67.337 30.306ZM87.016 26.541C87.016 27.106 87.109 27.482 87.296 27.671C87.576 27.859 87.855 27.953 88.321 27.953H89.441C89.813 27.953 90.186 27.953 90.373 27.859C90.373 28.047 90.466 28.235 90.466 28.518V29.271C90.466 29.553 90.373 29.741 90.28 30.023C90.186 30.212 90.093 30.4 89.907 30.588C89.72 30.682 89.44 30.682 89.067 30.776H87.855C87.389 30.776 86.829 30.776 86.363 30.682C85.8914 30.5926 85.4454 30.4 85.057 30.118C84.684 29.835 84.404 29.458 84.124 28.988C83.938 28.329 83.938 27.576 83.938 26.729V19.106H82.073C81.979 18.729 81.886 18.353 81.886 17.976C81.886 17.6 81.886 17.129 82.073 16.847H83.938V13.46C84.124 13.366 84.404 13.272 84.684 13.178C84.964 13.083 85.244 13.083 85.524 13.083H86.363C86.643 13.083 86.829 13.083 87.016 13.178V16.942H90.653C90.746 17.319 90.839 17.695 90.839 18.072C90.839 18.448 90.746 18.919 90.653 19.201H87.015V26.542L87.016 26.541Z" fill="white"/>
<path fill-rule="evenodd" clip-rule="evenodd" d="M105.948 27.765C106.041 28.141 106.135 28.612 106.041 29.177C105.948 29.741 105.762 30.117 105.575 30.494C105.202 30.588 104.829 30.682 104.456 30.682C104.083 30.682 103.617 30.588 103.243 30.494C102.857 30.4012 102.503 30.206 102.218 29.929C101.938 29.647 101.658 29.271 101.565 28.894C101.192 29.459 100.632 29.835 99.9791 30.212C99.3261 30.588 98.4871 30.776 97.4611 30.776C96.4351 30.776 95.5961 30.588 95.0361 30.306C94.4761 30.023 94.0101 29.647 93.7311 29.176C93.4652 28.7411 93.2758 28.2639 93.1711 27.765C93.0781 27.2 93.0781 26.823 93.0781 26.353C93.0781 25.694 93.0781 25.129 93.2641 24.659C93.3581 24.189 93.5441 23.812 93.7311 23.435C94.0111 23.153 94.2911 22.871 94.7571 22.682C95.2231 22.494 95.7821 22.4 96.5281 22.306C96.8081 22.306 97.2751 22.212 97.6481 22.212H98.9531C99.4201 22.212 99.8861 22.212 100.259 22.306C100.725 22.306 101.098 22.4 101.471 22.588V21.458C101.471 21.082 101.471 20.706 101.378 20.424C101.285 20.141 101.192 19.953 101.005 19.859C100.819 19.671 100.632 19.576 100.352 19.576C100.073 19.576 99.7921 19.482 99.3261 19.482H96.5301C95.6901 19.482 94.9441 19.577 94.2911 19.671C94.0111 19.388 93.9181 19.011 93.8251 18.541C93.7321 18.071 93.7321 17.6 93.7321 17.224C94.1051 17.129 94.4781 17.129 95.0371 17.035C95.5041 17.035 95.9701 16.941 96.5291 16.941H99.3271C100.074 16.941 100.82 16.941 101.472 17.129C102.125 17.224 102.685 17.412 103.151 17.789C103.618 18.071 103.991 18.635 104.177 19.2C104.457 19.765 104.55 20.612 104.55 21.647V28.141C104.643 28.235 104.83 28.329 104.923 28.329H105.762C105.855 27.765 105.948 27.765 105.948 27.765V27.765ZM98.1141 28.141C98.8601 28.141 99.6061 27.953 100.073 27.765C100.539 27.482 101.005 27.2 101.378 26.918V24H99.1401C98.3941 24 97.7401 24.094 97.1811 24.188C96.9951 24.188 96.8081 24.282 96.7151 24.282C96.6221 24.282 96.4351 24.377 96.4351 24.565C96.3421 24.659 96.2491 24.847 96.2491 25.129V26.165C96.2491 26.918 96.4351 27.388 96.7151 27.765C96.8081 28.047 97.3681 28.235 98.1141 28.141V28.141Z" fill="white"/>
<path d="M114.155 14.494C113.409 14.494 112.943 14.588 112.663 14.871C112.383 15.153 112.29 15.718 112.29 16.565V17.977H115.461C115.554 18.353 115.648 18.729 115.648 19.106C115.648 19.576 115.554 19.953 115.461 20.236H112.29V30.306C111.824 30.4 111.264 30.494 110.798 30.494C110.238 30.494 109.772 30.4 109.306 30.306V20.329H107.534C107.44 19.953 107.347 19.576 107.347 19.2C107.347 18.73 107.44 18.353 107.534 18.07H109.306V16.47C109.306 15.812 109.399 15.247 109.586 14.682C109.757 14.1746 110.009 13.6982 110.332 13.271C110.705 12.894 111.078 12.518 111.637 12.329C112.197 12.047 112.85 12.047 113.596 12.047H114.342C114.622 12.047 114.902 12.047 115.181 12.141H115.275C115.554 12.141 115.834 12.235 116.114 12.329C116.301 12.329 116.487 12.424 116.58 12.424C116.674 12.424 116.767 12.424 116.86 12.518C116.953 12.894 116.953 13.365 116.86 13.741C116.767 14.118 116.674 14.588 116.487 14.871L115.461 14.776C114.902 14.494 114.529 14.494 114.155 14.494V14.494Z" fill="white"/>
<path fill-rule="evenodd" clip-rule="evenodd" d="M123.668 16.47C124.881 16.47 125.907 16.659 126.746 16.941C127.585 17.224 128.238 17.694 128.798 18.259C129.264 18.823 129.637 19.576 129.824 20.424C130.01 21.271 130.104 22.306 130.104 23.341C130.104 24.565 130.01 25.6 129.824 26.541C129.637 27.388 129.264 28.235 128.798 28.8C128.332 29.365 127.585 29.835 126.746 30.212C125.907 30.494 124.881 30.682 123.668 30.682C122.456 30.682 121.337 30.494 120.591 30.212C119.751 29.929 119.098 29.459 118.539 28.8C118.073 28.235 117.699 27.388 117.513 26.541C117.326 25.694 117.233 24.565 117.233 23.341C117.233 22.211 117.326 21.271 117.513 20.423C117.699 19.577 118.073 18.823 118.539 18.259C119.098 17.694 119.751 17.224 120.591 16.941C121.43 16.565 122.456 16.471 123.668 16.471V16.47ZM123.668 19.012C123.016 19.012 122.456 19.106 121.99 19.294C121.523 19.482 121.244 19.671 120.964 20.047C120.684 20.424 120.497 20.894 120.497 21.459C120.404 22.023 120.404 22.682 120.404 23.435C120.404 24.282 120.404 24.941 120.497 25.6C120.591 26.165 120.777 26.73 120.964 27.012C121.244 27.388 121.523 27.671 121.99 27.859C122.456 28.047 123.016 28.141 123.668 28.141C124.321 28.141 124.974 28.047 125.347 27.859C125.813 27.671 126.093 27.389 126.373 27.012C126.653 26.635 126.746 26.165 126.839 25.6C126.933 25.035 126.933 24.282 126.933 23.53C126.933 22.776 126.933 22.118 126.839 21.553C126.746 20.988 126.56 20.518 126.373 20.235C126.093 19.859 125.813 19.671 125.347 19.482C124.881 19.106 124.321 19.012 123.668 19.012V19.012Z" fill="white"/>
<path d="M141.948 16.47C141.948 16.659 142.041 16.847 142.041 17.13V17.977C142.041 18.259 141.948 18.541 141.948 18.823C141.872 19.0501 141.779 19.2708 141.668 19.483H139.337C138.87 19.483 138.404 19.576 137.845 19.576C137.658 19.576 137.471 19.671 137.285 19.671C136.912 19.671 136.632 19.765 136.259 19.859V30.306C136.073 30.306 135.793 30.4 135.513 30.4H133.834C133.554 30.4 133.368 30.306 133.088 30.306V16.847C133.181 16.753 133.368 16.659 133.648 16.565C133.927 16.471 134.114 16.471 134.394 16.471H135.14C135.42 16.471 135.606 16.471 135.699 16.565L136.259 18.259C136.725 17.882 137.285 17.506 137.751 17.318C138.311 17.035 138.777 16.848 139.337 16.753C139.836 16.6675 140.333 16.5735 140.829 16.471H141.948V16.47Z" fill="white"/>
<path fill-rule="evenodd" clip-rule="evenodd" d="M149.596 16.47C150.902 16.47 151.927 16.659 152.767 16.941C153.606 17.224 154.259 17.788 154.725 18.353C155.192 18.918 155.472 19.671 155.565 20.612C155.658 21.459 155.658 22.494 155.565 23.529C155.565 23.812 155.472 24.094 155.285 24.189C155.098 24.282 154.912 24.471 154.539 24.565C154.259 24.565 153.793 24.659 153.233 24.659H148.943C148.197 24.659 147.451 24.565 146.891 24.471C146.891 25.129 146.984 25.788 147.078 26.165C147.171 26.635 147.358 27.012 147.637 27.295C147.917 27.576 148.197 27.765 148.663 27.859C149.182 27.9852 149.715 28.0483 150.249 28.047H151.554C152.021 28.047 152.487 27.953 152.953 27.953C153.42 27.953 153.793 27.859 154.073 27.859C154.352 27.859 154.632 27.765 154.725 27.765C154.912 28.047 155.005 28.329 155.192 28.895C155.285 29.365 155.285 29.835 155.192 30.305C155.005 30.4 154.725 30.495 154.259 30.588C153.979 30.682 153.793 30.682 153.513 30.682C153.326 30.682 153.14 30.777 152.953 30.777C152.487 30.777 151.927 30.871 151.461 30.871H150.062C148.85 30.871 147.824 30.776 147.078 30.494C146.238 30.212 145.586 29.835 145.026 29.271C144.56 28.706 144.187 27.953 143.907 27.011C143.627 26.071 143.627 24.941 143.627 23.624C143.627 22.494 143.72 21.553 143.907 20.612C144.093 19.765 144.373 19.012 144.839 18.447C145.306 17.882 145.865 17.412 146.611 17.129C147.451 16.565 148.383 16.471 149.596 16.471V16.47ZM152.487 22.494C152.487 21.647 152.487 21.082 152.394 20.612C152.301 20.142 152.114 19.765 151.834 19.577C151.554 19.294 151.275 19.2 150.902 19.106C150.529 19.012 150.155 19.012 149.689 19.012C149.13 19.012 148.57 19.012 148.197 19.2C147.824 19.294 147.544 19.482 147.264 19.765C147.037 20.1078 146.878 20.4916 146.798 20.895C146.705 21.365 146.705 21.929 146.611 22.682L152.487 22.494V22.494Z" fill="white"/>
<path d="M163.772 16.47C164.332 16.47 164.891 16.47 165.451 16.565C166.01 16.565 166.57 16.659 167.036 16.753C167.223 16.753 167.409 16.847 167.596 16.847C167.876 16.847 168.062 16.941 168.342 16.941C168.715 17.035 168.902 17.129 169.088 17.129V17.694C169.088 17.882 169.088 18.071 168.995 18.259V18.353C168.995 18.635 168.902 18.823 168.808 19.012L168.528 19.576C168.528 19.576 168.342 19.576 168.062 19.482C167.782 19.388 167.316 19.388 166.943 19.294C166.477 19.294 166.01 19.2 165.451 19.106C164.891 19.106 164.332 19.012 163.865 19.012C162.933 19.012 162.373 19.106 162 19.294C161.627 19.482 161.534 19.764 161.534 20.235C161.534 20.518 161.627 20.8 161.813 20.988C162 21.177 162.187 21.365 162.56 21.553C162.653 21.553 162.653 21.647 162.746 21.647C163.026 21.741 163.306 21.835 163.679 21.929C164.145 22.024 164.705 22.212 165.264 22.4H165.357C166.104 22.588 166.663 22.87 167.223 23.059C167.749 23.2272 168.229 23.5174 168.622 23.906C168.995 24.188 169.275 24.565 169.461 25.036C169.648 25.506 169.741 26.071 169.741 26.729C169.741 28.141 169.275 29.082 168.342 29.741C167.409 30.4 166.01 30.682 163.959 30.682C163.399 30.682 162.746 30.682 162.186 30.588C161.627 30.588 161.067 30.494 160.601 30.4C160.414 30.4 160.228 30.306 160.041 30.306C159.762 30.306 159.482 30.212 159.295 30.212C158.922 30.118 158.642 30.023 158.456 29.929V28.612C158.549 28.142 158.642 27.765 158.829 27.482C159.016 27.482 159.295 27.577 159.668 27.577C160.041 27.577 160.321 27.671 160.694 27.765H160.974C161.44 27.859 162 27.859 162.56 27.953H162.653C163.119 27.953 163.679 28.047 164.145 28.047C165.171 28.047 165.824 27.953 166.197 27.765C166.57 27.576 166.756 27.2 166.756 26.729C166.756 26.447 166.663 26.165 166.477 26.071C166.29 25.882 166.104 25.788 165.824 25.6C165.544 25.506 165.171 25.318 164.705 25.223C164.238 25.129 163.772 24.941 163.119 24.753C162.373 24.471 161.72 24.283 161.067 24C160.558 23.7378 160.061 23.4552 159.575 23.153C159.189 22.8453 158.871 22.4604 158.642 22.023C158.456 21.553 158.363 20.988 158.363 20.423C158.363 19.012 158.829 18.071 159.668 17.412C160.508 16.752 161.907 16.471 163.772 16.471V16.47ZM176.176 26.541C176.176 27.106 176.269 27.482 176.456 27.671C176.736 27.859 177.016 27.953 177.482 27.953H178.601C178.974 27.953 179.347 27.953 179.534 27.859C179.534 28.047 179.627 28.235 179.627 28.518V29.271C179.627 29.553 179.534 29.741 179.44 30.023C179.347 30.212 179.254 30.4 179.067 30.588C178.881 30.682 178.601 30.682 178.228 30.776C177.855 30.871 177.482 30.776 177.016 30.776C176.549 30.776 175.99 30.776 175.523 30.682C175.052 30.5925 174.606 30.3999 174.218 30.118C173.845 29.835 173.565 29.458 173.285 28.988C173.005 28.424 173.005 27.765 173.005 26.918V19.294H171.14C171.047 18.918 170.953 18.541 170.953 18.164C170.953 17.788 170.953 17.318 171.14 17.035H173.005V13.647C173.192 13.553 173.472 13.459 173.751 13.365C174.031 13.271 174.311 13.271 174.591 13.271H175.43C175.71 13.271 175.896 13.271 176.083 13.365V17.129H179.72C179.813 17.506 179.907 17.882 179.907 18.259C179.898 18.6426 179.835 19.0229 179.72 19.389H176.083V26.541H176.176V26.541Z" fill="white"/>
</svg>
